X: 40093
T: Thursday Night In The Caley
R: jig
M: 6/8
K: Cmajor
G2F|:E3 cdB|c2E E2D|E3 cde|c3 c2B|
A3 a2g|aee e2g|aba age|g3 edc|
E3 cdB|c2E E2D|E3 cde|c3- ceg|
age g2e|dcA cde|dcA GED|C3 G2F:|
|:EGc cGE|EGc d2c|EGc dcA|c3 c2B|
A3 a2g|aee e2g|aba age|g3 edc|
EGc cGE|EGc d2c|EGc dcA|c3- ceg|
age g2e|dcA cde|dcA GED|C3 G2F:|

